X:1778
T:Eileen Curran
T:Sailor's Return
O:england
C:Traditional
M:4/4
E:11
I:speed 350
N:Tune from George Keith, ABC version from Dan Beimborn
S:Kevin Burke's "Up Close", Gerald Trimble's "First Flight" (in G)
K:F
FA|BAGF DGGB|AFcF dFcF|BAGF DGGA|BABc dgga|(3bag a^f g=fde|
fdcB AFFA|BAGF DGGA | [1 BdcA BGGA:|[2 BdcA BG G2||
g2 g^f gbag|=f2 fe fgaf|dgg^f g2 ga|(3bag a^f g2 ga|
(3bag a^f g=fde|fdcB AFFA|BAGF DFGA Bd| (3cBA BG G2:|


